X:1
T:Title
%%score { ( 1 3 4 ) | ( 2 5 ) }
L:1/8
Q:1/4=92
M:6/8
K:G
V:1 treble nm="Grand Piano"
V:3 treble 
V:4 treble 
V:2 bass 
V:5 bass 
V:1
 [B,D][B,G][CA] [DB][Dc][DB] | [EA]3 .E3 | FED cBA | B6 | [B,D][B,G][CA] [DB][Dc][DB] | [EA]3 .E3 | %6
w: W.~E.~M.~Hackleman * * * * *||||||
 FED cBA | [B,G]6 | GFE GFE | [^DB]3 .[DF]3 | GFG [EA][EG][EA] |[M:7/8] [^DB]3 [=Dc]3 z | %12
w: ||||||
[M:3/4] [B,D][B,G] [CA][DB] [Dc][DB] | [EA]3 .E3 | FE Dc BA | [B,G]6 | B,B, .B,2 GA | %17
w: |||||
 B-[DB-] [DB-] [DB]3 | c-[Ec-] [Ec]2 GA | B-[DB-] [DB-] [DB]3 | D4 z2[K:treble] | %21
w: ||||
 B-[DB-] [DB-] [DB]3 | ^c-[Gc-] [Gc]2 B[Gc] | d-[Gd-] [Fd-][Ed-] [Dd]C | %24
w: |||
 [B,D][B,G] [CA][DB] [Dc][DB] | [EA]3 .E3 | FE Dc BA | B6 | [B,D][B,G] [CA][DB] [Dc][DB] | %29
w: |||||
 [EA]3 .E3 | FE Dc BA |[M:7/4] [B,G]6 z2 z2 z4 |] %32
w: |||
V:2
 [G,,G,][G,,G,][G,,G,] [G,,G,][A,,F,][B,,G,] | [C,C]3 .[C,A,C]3 | %2
 [D,A,C][D,G,C][D,F,C] [D,A,D][D,G,D][D,F,D] | [G,D]6 | %4
 [G,,G,][G,,G,][G,,G,] [G,,G,][A,,F,][B,,G,] | [C,C]3 .[C,A,C]3 | %6
 [D,A,C][D,G,C][D,F,C] [D,A,D][D,G,D][D,F,C] | [G,,G,]6 | %8
 [E,B,E][E,A,E][E,G,] [E,B,E][E,A,E][E,G,] | [B,,F,]3 .[B,,B,]3 | %10
 [E,B,E][E,B,^D][E,B,E] [C,C][C,C][C,A,] |[M:7/8] [B,,F,]3 [A,,F,]3 z | %12
[M:3/4] [G,,G,][G,,G,] [G,,G,][G,,G,] [A,,F,][B,,G,] | [C,C]3 .[C,A,C]3 | %14
 [D,A,C][D,G,C] [D,F,C][D,A,D] [D,G,D][D,F,C] | [G,,G,]6 | [G,,G,][B,,G,] [D,G,] [G,,G,]2 C | %17
 [G,,G,][B,,G,] [D,G,] .G,3 | [C,G,][E,G,] G, [C,G,]2 ^D | [G,,G,][B,,G,] [D,G,] .G,3 | %20
 G,,B,, .D,2[K:treble] GC | [G,,G,][B,,G,] [D,G,] .G,3 | [A,,A,][^C,A,] [E,A,] A,2 [A,,A,] | %23
 [D,A,][E,A,] [D,A,]A,- [B,,A,]A,, | [G,,G,][G,,G,] [G,,G,][G,,G,] [A,,F,][B,,G,] | %25
 [C,C]3 .[C,A,C]3 | [D,A,C][D,G,C] [D,F,C][D,A,D] [D,G,D][D,F,D] | [G,D]6 | %28
 [G,,G,][G,,G,] [G,,G,][G,,G,] [A,,F,][B,,G,] | [C,C]3 .[C,A,C]3 | %30
 [D,A,C][D,G,C] [D,F,C][D,A,D] [D,G,D][D,F,C] |[M:7/4] [G,,G,]6 z2 z2 z4 |] %32
V:3
 x6 | x6 | x6 | x6 | x6 | x6 | x6 | x6 | x6 | x6 | x6 |[M:7/8] x7 |[M:3/4] x6 | x6 | x6 | x6 | %16
 D4 z2 | .D2 z2 z2 | .E2 z .E3 | .D2 z2 z2 | [G,B,][G,B,] [G,B,] [G,B,]2[K:treble] A | .D2 z2 z2 | %22
 .G2 z .G3 | .F2 z2 z2 | x6 | x6 | x6 | x6 | x6 | x6 | x6 |[M:7/4] x14 |] %32
V:4
 x6 | x6 | x6 | x6 | x6 | x6 | x6 | x6 | x6 | x6 | x6 |[M:7/8] x7 |[M:3/4] x6 | x6 | x6 | x6 | %16
 z2 z .B,3 | x6 | x6 | x6 | x5[K:treble] x | x6 | x6 | x6 | x6 | x6 | x6 | x6 | x6 | x6 | x6 | %31
[M:7/4] x14 |] %32
V:5
 x6 | x6 | x6 | x6 | x6 | x6 | x6 | x6 | x6 | x6 | x6 |[M:7/8] x7 |[M:3/4] x6 | x6 | x6 | x6 | x6 | %17
 x6 | x6 | x6 | z2 z .G,,3[K:treble] | x6 | x6 | z2 z C, z2 | x6 | x6 | x6 | x6 | x6 | x6 | x6 | %31
[M:7/4] x14 |] %32

